img/dash-spacing-dont1.svg

<svg width="180" height="109" xmlns="http://www.w3.org/2000/svg"><g fill="none" fill-rule="evenodd"><path d="M2.404 105V92.994H7.75c2.088 0 3.366 1.26 3.366 3.06 0 1.512-1.008 2.52-2.106 2.754 1.278.198 2.34 1.512 2.34 2.952 0 1.926-1.278 3.24-3.474 3.24H2.404zm1.494-6.804h3.6c1.35 0 2.07-.828 2.07-1.926 0-1.08-.72-1.944-2.07-1.944h-3.6v3.87zm0 5.472H7.57c1.404 0 2.232-.792 2.232-2.07 0-1.098-.756-2.07-2.232-2.07H3.898v4.14zm13.572 1.548c-2.646 0-4.302-2.052-4.302-4.572s1.656-4.554 4.302-4.554 4.302 2.034 4.302 4.554c0 2.52-1.656 4.572-4.302 4.572zm0-1.206c1.854 0 2.88-1.584 2.88-3.366 0-1.764-1.026-3.348-2.88-3.348-1.854 0-2.898 1.584-2.898 3.348 0 1.782 1.044 3.366 2.898 3.366zm12.798.99v-1.296c-.648.882-1.71 1.512-2.934 1.512-2.268 0-3.87-1.728-3.87-4.554 0-2.772 1.584-4.572 3.87-4.572 1.17 0 2.232.576 2.934 1.53v-4.626h1.35V105h-1.35zm0-2.358V98.7c-.486-.756-1.53-1.404-2.61-1.404-1.746 0-2.79 1.44-2.79 3.366 0 1.926 1.044 3.348 2.79 3.348 1.08 0 2.124-.612 2.61-1.368zm3.78 4.536l-.216 1.224c.252.072.702.126.99.126 1.152-.018 2.034-.504 2.556-1.764l4.356-10.458h-1.476l-2.88 7.128-2.898-7.128h-1.458l3.636 8.784-.576 1.314c-.306.72-.702.918-1.296.918a2.07 2.07 0 01-.738-.144zM50.806 105H52.3V94.326h3.816v-1.332h-9.108v1.332h3.798V105zm6.732-4.356c0-2.52 1.8-4.554 4.284-4.554 2.628 0 4.176 2.052 4.176 4.662v.342H58.96c.108 1.638 1.26 3.006 3.132 3.006.99 0 1.998-.396 2.682-1.098l.648.882c-.864.864-2.034 1.332-3.456 1.332-2.574 0-4.428-1.854-4.428-4.572zm4.266-3.438c-1.854 0-2.772 1.566-2.844 2.898h5.706c-.018-1.296-.882-2.898-2.862-2.898zM73.81 105h1.566l-3.348-4.464 3.15-4.23h-1.566L71.2 99.618l-2.412-3.312h-1.566l3.15 4.23-3.33 4.464h1.548l2.61-3.564L73.81 105zm5.31.216c.792 0 1.278-.234 1.62-.558l-.396-1.008c-.18.198-.54.36-.918.36-.594 0-.882-.468-.882-1.116v-5.4h1.764v-1.188h-1.764V93.93h-1.35v2.376h-1.44v1.188h1.44v5.688c0 1.296.648 2.034 1.926 2.034zM1.416 3.064h6.816V23h2.432V3.064h6.752V.856h-16v2.208zM20.136 23h2.4V7h-2.4v16zm0-19.616h2.4V.6h-2.4v2.784zM35.432 9.08V7h-5.088V2.104h-2.368V7h-2.272v2.08h2.272v8.416c0 4.608 1.12 5.856 4.416 5.856 1.12 0 3.264-.352 3.264-.352l-.16-1.984s-1.952.192-2.848.192c-2.08 0-2.304-.992-2.304-4.48V9.08h5.088zM38.568 23h2.4V.024h-2.4V23zm13.12-1.792c2.4 0 5.888-.288 5.888-.288l.064 1.888s-3.648.512-6.24.512c-4.768 0-6.336-2.784-6.336-8.224 0-6.08 2.624-8.416 6.688-8.416 4.256 0 6.432 2.24 6.432 7.488l-.128 1.824h-10.56c0 3.424 1.056 5.216 4.192 5.216zm-4.224-7.136h8.32c0-3.968-1.216-5.376-4.032-5.376-2.72 0-4.256 1.504-4.288 5.376z" fill="#071D49"/><path d="M1 35h29" stroke="#C8102E" stroke-width="2" stroke-linecap="square"/><path fill="#D0021B" opacity=".05" d="M0 24h134v10H0z"/><path d="M148.848 33h1.328V22.328h-1.168l-2.672 2.752.8.816 1.712-1.808V33zm3.392-5.328c0-2.608 1.152-5.504 4.08-5.504 2.912 0 4.08 2.896 4.08 5.504 0 2.592-1.168 5.52-4.08 5.52-2.928 0-4.08-2.928-4.08-5.52zm6.8 0c0-2.128-.688-4.32-2.72-4.32s-2.72 2.192-2.72 4.32.688 4.336 2.72 4.336 2.72-2.208 2.72-4.336zm4.576 8.272h-1.2V25.272h1.2v1.152a3.23 3.23 0 012.608-1.344c2.032 0 3.44 1.536 3.44 4.048 0 2.496-1.408 4.064-3.44 4.064-1.056 0-1.984-.496-2.608-1.36v4.112zm4.784-6.816c0-1.712-.928-2.976-2.48-2.976-.944 0-1.888.56-2.304 1.232v3.488c.416.672 1.36 1.248 2.304 1.248 1.552 0 2.48-1.28 2.48-2.992zM176.608 33H178l-2.976-3.968 2.8-3.76h-1.392l-2.144 2.944-2.144-2.944h-1.392l2.8 3.76-2.96 3.968h1.376l2.32-3.168 2.32 3.168z" fill="#C8102E" opacity=".7"/><path fill="#D0021B" opacity=".05" d="M0 36h134v50H0z"/><path d="M145.056 63.48c.8 1.056 1.952 1.712 3.76 1.712 2.144 0 3.792-1.344 3.792-3.52 0-2.192-1.616-3.408-3.392-3.408-1.072 0-1.984.448-2.496.96v-3.712h5.2v-1.184h-6.528v5.76l.976.336c.72-.704 1.52-1.008 2.464-1.008 1.44 0 2.448.896 2.448 2.304 0 1.296-1.008 2.288-2.464 2.288-1.312 0-2.24-.512-2.944-1.408l-.816.88zm9.2-3.808c0-2.608 1.152-5.504 4.08-5.504 2.912 0 4.08 2.896 4.08 5.504 0 2.592-1.168 5.52-4.08 5.52-2.928 0-4.08-2.928-4.08-5.52zm6.8 0c0-2.128-.688-4.32-2.72-4.32s-2.72 2.192-2.72 4.32.688 4.336 2.72 4.336 2.72-2.208 2.72-4.336zm4.576 8.272h-1.2V57.272h1.2v1.152a3.23 3.23 0 012.608-1.344c2.032 0 3.44 1.536 3.44 4.048 0 2.496-1.408 4.064-3.44 4.064-1.056 0-1.984-.496-2.608-1.36v4.112zm4.784-6.816c0-1.712-.928-2.976-2.48-2.976-.944 0-1.888.56-2.304 1.232v3.488c.416.672 1.36 1.248 2.304 1.248 1.552 0 2.48-1.28 2.48-2.992zM178.624 65h1.392l-2.976-3.968 2.8-3.76h-1.392l-2.144 2.944-2.144-2.944h-1.392l2.8 3.76-2.96 3.968h1.376l2.32-3.168 2.32 3.168z" fill="#C8102E" opacity=".7"/></g></svg>

<?xml version="1.0" encoding="UTF-8"?>
<svg width="180px" height="109px" viewBox="0 0 180 109" version="1.1" xmlns="http://www.w3.org/2000/svg" xmlns:xlink="http://www.w3.org/1999/xlink">
    <!-- Generator: Sketch 45.1 (43504) - http://www.bohemiancoding.com/sketch -->
    <title>Group 14</title>
    <desc>Created with Sketch.</desc>
    <defs></defs>
    <g id="Page-1" stroke="none" stroke-width="1" fill="none" fill-rule="evenodd">
        <g id="7-12-4" transform="translate(-822.000000, -3535.000000)">
            <g id="Group-14" transform="translate(822.000000, 3535.000000)">
                <g id="Group-6">
                    <path d="M2.404,105 L2.404,92.994 L7.75,92.994 C9.838,92.994 11.116,94.254 11.116,96.054 C11.116,97.566 10.108,98.574 9.01,98.808 C10.288,99.006 11.35,100.32 11.35,101.76 C11.35,103.686 10.072,105 7.876,105 L2.404,105 Z M3.898,98.196 L7.498,98.196 C8.848,98.196 9.568,97.368 9.568,96.27 C9.568,95.19 8.848,94.326 7.498,94.326 L3.898,94.326 L3.898,98.196 Z M3.898,103.668 L7.57,103.668 C8.974,103.668 9.802,102.876 9.802,101.598 C9.802,100.5 9.046,99.528 7.57,99.528 L3.898,99.528 L3.898,103.668 Z M17.47,105.216 C14.824,105.216 13.168,103.164 13.168,100.644 C13.168,98.124 14.824,96.09 17.47,96.09 C20.116,96.09 21.772,98.124 21.772,100.644 C21.772,103.164 20.116,105.216 17.47,105.216 Z M17.47,104.01 C19.324,104.01 20.35,102.426 20.35,100.644 C20.35,98.88 19.324,97.296 17.47,97.296 C15.616,97.296 14.572,98.88 14.572,100.644 C14.572,102.426 15.616,104.01 17.47,104.01 Z M30.268,105 L30.268,103.704 C29.62,104.586 28.558,105.216 27.334,105.216 C25.066,105.216 23.464,103.488 23.464,100.662 C23.464,97.89 25.048,96.09 27.334,96.09 C28.504,96.09 29.566,96.666 30.268,97.62 L30.268,92.994 L31.618,92.994 L31.618,105 L30.268,105 Z M30.268,102.642 L30.268,98.7 C29.782,97.944 28.738,97.296 27.658,97.296 C25.912,97.296 24.868,98.736 24.868,100.662 C24.868,102.588 25.912,104.01 27.658,104.01 C28.738,104.01 29.782,103.398 30.268,102.642 Z M34.048,107.178 L33.832,108.402 C34.084,108.474 34.534,108.528 34.822,108.528 C35.974,108.51 36.856,108.024 37.378,106.764 L41.734,96.306 L40.258,96.306 L37.378,103.434 L34.48,96.306 L33.022,96.306 L36.658,105.09 L36.082,106.404 C35.776,107.124 35.38,107.322 34.786,107.322 C34.57,107.322 34.246,107.268 34.048,107.178 Z M50.806,105 L52.3,105 L52.3,94.326 L56.116,94.326 L56.116,92.994 L47.008,92.994 L47.008,94.326 L50.806,94.326 L50.806,105 Z M57.538,100.644 C57.538,98.124 59.338,96.09 61.822,96.09 C64.45,96.09 65.998,98.142 65.998,100.752 L65.998,101.094 L58.96,101.094 C59.068,102.732 60.22,104.1 62.092,104.1 C63.082,104.1 64.09,103.704 64.774,103.002 L65.422,103.884 C64.558,104.748 63.388,105.216 61.966,105.216 C59.392,105.216 57.538,103.362 57.538,100.644 Z M61.804,97.206 C59.95,97.206 59.032,98.772 58.96,100.104 L64.666,100.104 C64.648,98.808 63.784,97.206 61.804,97.206 Z M73.81,105 L75.376,105 L72.028,100.536 L75.178,96.306 L73.612,96.306 L71.2,99.618 L68.788,96.306 L67.222,96.306 L70.372,100.536 L67.042,105 L68.59,105 L71.2,101.436 L73.81,105 Z M79.12,105.216 C79.912,105.216 80.398,104.982 80.74,104.658 L80.344,103.65 C80.164,103.848 79.804,104.01 79.426,104.01 C78.832,104.01 78.544,103.542 78.544,102.894 L78.544,97.494 L80.308,97.494 L80.308,96.306 L78.544,96.306 L78.544,93.93 L77.194,93.93 L77.194,96.306 L75.754,96.306 L75.754,97.494 L77.194,97.494 L77.194,103.182 C77.194,104.478 77.842,105.216 79.12,105.216 Z" id="Body-Text-Copy" fill="#071D49"></path>
                    <path d="M1.416,3.064 L8.232,3.064 L8.232,23 L10.664,23 L10.664,3.064 L17.416,3.064 L17.416,0.856 L1.416,0.856 L1.416,3.064 Z M20.136,23 L22.536,23 L22.536,7 L20.136,7 L20.136,23 Z M20.136,3.384 L22.536,3.384 L22.536,0.6 L20.136,0.6 L20.136,3.384 Z M35.432,9.08 L35.432,7 L30.344,7 L30.344,2.104 L27.976,2.104 L27.976,7 L25.704,7 L25.704,9.08 L27.976,9.08 L27.976,17.496 C27.976,22.104 29.096,23.352 32.392,23.352 C33.512,23.352 35.656,23 35.656,23 L35.496,21.016 C35.496,21.016 33.544,21.208 32.648,21.208 C30.568,21.208 30.344,20.216 30.344,16.728 L30.344,9.08 L35.432,9.08 Z M38.568,23 L40.968,23 L40.968,0.024 L38.568,0.024 L38.568,23 Z M51.688,21.208 C54.088,21.208 57.576,20.92 57.576,20.92 L57.64,22.808 C57.64,22.808 53.992,23.32 51.4,23.32 C46.632,23.32 45.064,20.536 45.064,15.096 C45.064,9.016 47.688,6.68 51.752,6.68 C56.008,6.68 58.184,8.92 58.184,14.168 L58.056,15.992 L47.496,15.992 C47.496,19.416 48.552,21.208 51.688,21.208 Z M47.464,14.072 L55.784,14.072 C55.784,10.104 54.568,8.696 51.752,8.696 C49.032,8.696 47.496,10.2 47.464,14.072 Z" id="Title" fill="#071D49"></path>
                    <path d="M1,35 L30,35" id="Line-Copy" stroke="#C8102E" stroke-width="2" stroke-linecap="square"></path>
                    <rect id="Rectangle-8-Copy-4" fill="#D0021B" opacity="0.05" x="0" y="24" width="134" height="10"></rect>
                    <path d="M148.848,33 L150.176,33 L150.176,22.328 L149.008,22.328 L146.336,25.08 L147.136,25.896 L148.848,24.088 L148.848,33 Z M152.24,27.672 C152.24,25.064 153.392,22.168 156.32,22.168 C159.232,22.168 160.4,25.064 160.4,27.672 C160.4,30.264 159.232,33.192 156.32,33.192 C153.392,33.192 152.24,30.264 152.24,27.672 Z M159.04,27.672 C159.04,25.544 158.352,23.352 156.32,23.352 C154.288,23.352 153.6,25.544 153.6,27.672 C153.6,29.8 154.288,32.008 156.32,32.008 C158.352,32.008 159.04,29.8 159.04,27.672 Z M163.616,35.944 L162.416,35.944 L162.416,25.272 L163.616,25.272 L163.616,26.424 C164.176,25.64 165.136,25.08 166.224,25.08 C168.256,25.08 169.664,26.616 169.664,29.128 C169.664,31.624 168.256,33.192 166.224,33.192 C165.168,33.192 164.24,32.696 163.616,31.832 L163.616,35.944 Z M168.4,29.128 C168.4,27.416 167.472,26.152 165.92,26.152 C164.976,26.152 164.032,26.712 163.616,27.384 L163.616,30.872 C164.032,31.544 164.976,32.12 165.92,32.12 C167.472,32.12 168.4,30.84 168.4,29.128 Z M176.608,33 L178,33 L175.024,29.032 L177.824,25.272 L176.432,25.272 L174.288,28.216 L172.144,25.272 L170.752,25.272 L173.552,29.032 L170.592,33 L171.968,33 L174.288,29.832 L176.608,33 Z" id="10px" fill="#C8102E" opacity="0.7"></path>
                    <rect id="Rectangle-8-Copy-3" fill="#D0021B" opacity="0.05" x="0" y="36" width="134" height="50"></rect>
                    <path d="M145.056,63.48 C145.856,64.536 147.008,65.192 148.816,65.192 C150.96,65.192 152.608,63.848 152.608,61.672 C152.608,59.48 150.992,58.264 149.216,58.264 C148.144,58.264 147.232,58.712 146.72,59.224 L146.72,55.512 L151.92,55.512 L151.92,54.328 L145.392,54.328 L145.392,60.088 L146.368,60.424 C147.088,59.72 147.888,59.416 148.832,59.416 C150.272,59.416 151.28,60.312 151.28,61.72 C151.28,63.016 150.272,64.008 148.816,64.008 C147.504,64.008 146.576,63.496 145.872,62.6 L145.056,63.48 Z M154.256,59.672 C154.256,57.064 155.408,54.168 158.336,54.168 C161.248,54.168 162.416,57.064 162.416,59.672 C162.416,62.264 161.248,65.192 158.336,65.192 C155.408,65.192 154.256,62.264 154.256,59.672 Z M161.056,59.672 C161.056,57.544 160.368,55.352 158.336,55.352 C156.304,55.352 155.616,57.544 155.616,59.672 C155.616,61.8 156.304,64.008 158.336,64.008 C160.368,64.008 161.056,61.8 161.056,59.672 Z M165.632,67.944 L164.432,67.944 L164.432,57.272 L165.632,57.272 L165.632,58.424 C166.192,57.64 167.152,57.08 168.24,57.08 C170.272,57.08 171.68,58.616 171.68,61.128 C171.68,63.624 170.272,65.192 168.24,65.192 C167.184,65.192 166.256,64.696 165.632,63.832 L165.632,67.944 Z M170.416,61.128 C170.416,59.416 169.488,58.152 167.936,58.152 C166.992,58.152 166.048,58.712 165.632,59.384 L165.632,62.872 C166.048,63.544 166.992,64.12 167.936,64.12 C169.488,64.12 170.416,62.84 170.416,61.128 Z M178.624,65 L180.016,65 L177.04,61.032 L179.84,57.272 L178.448,57.272 L176.304,60.216 L174.16,57.272 L172.768,57.272 L175.568,61.032 L172.608,65 L173.984,65 L176.304,61.832 L178.624,65 Z" id="50px" fill="#C8102E" opacity="0.7"></path>
                </g>
            </g>
        </g>
    </g>
</svg>
